src/DGGeoclicker/skin/basic/img/DGPopup__bookletLinkIcon.svg

<svg xmlns="http://www.w3.org/2000/svg" width="12" height="10"><path fill-rule="evenodd" clip-rule="evenodd" fill="#7DC814" d="M0 8l3 2v-8l-3-2v8zm4 2l4-2v-8l-4 2v8zm5-10v8l3 2v-8l-3-2z"/></svg>

<svg xmlns="http://www.w3.org/2000/svg" width="12" height="10">
    <path d="m 0,8 3,2 V 2 L 0,0 V 8 z M 4,10 8,8 V 0 L 4,2 v 8 z M 9,0 v 8 l 3,2 V 2 L 9,0 z" fill="#7dc814" fill-rule="evenodd"/>
</svg>
